X:1
T:Title
%%score { ( 1 4 ) | ( 2 3 ) }
L:1/8
Q:1/4=86
M:4/4
K:F
V:1 treble nm="Grand Piano"
V:4 treble 
V:2 bass 
V:3 bass 
V:1
 [Ac][Ac][_A=B][=Ac] [_Bd][Ac]AF | AABA [B,DG]2 [B,D]2 | [GB][GB][^FA][GB] [ce][Bd][Ac][GB] | %3
w: J.~H.~Keagle * * * * * * *|||
 [EG][EG][_E^F][=EG] [GB]2 [=FA]2 | [Ac][Ac][_A=B][=Ac] [Af][Ac]AA | BBAB e2 d2 | %6
w: |||
 c>c cc CC[B,CD][B,CE] | [A,CF]6 z2 | c4 [_Ad]2 [=Ac]2 | FFBA [B,DG]2 [B,D]2 | B4 z2 [GB]2 | %11
w: |||||
 z4 [GB]2 z2 | [CAc][CAc][D_A=B][C=Ac] [Af][Ac]AA | BBAB e2 d2 | c>c cc CC[B,CD][B,CE] | %15
w: ||||
[M:8/4] [A,CF]8 z8 |] %16
w: |
V:2
 [F,C][F,C][F,D][F,C] [F,F][F,F][F,CF][F,A,] | [F,CF][F,CF][F,DF][F,CF] z2 F,2 | %2
 [C,C][C,C][C,C][C,C] [C,C][C,C][C,C][C,C] | [C,C][C,B,][C,A,][C,C] [F,C]4 | %4
 [F,C][F,C][F,D][F,C] [F,C][F,C][F,CF][^F,CD] | z4 E2 z2 | [CFA]>C CC[K:bass] C,C,C,B,, | F,,6 z2 | %8
 A4 z4 | [F,A,C][F,A,C][F,DF][F,CF] z2 F,2 | G4 z4 | z4 F,4 | F,F,F,F, [F,C][F,C][F,CF][^F,CD] | %13
 z4 E2 z2 | [CFA]>C CC[K:bass] C,C,C,B,, |[M:8/4] F,,8 z8 |] %16
V:3
 x8 | z4 B,,4 | x8 | x8 | x8 | [G,B,D][G,CG][CD^F][B,DG] [=B,_A]2- [B,=FA]2 | x4[K:bass] x4 | x8 | %8
 z2 F,F, [F,=B,]F,F,F, | z4 B,,4 | z2 C,[C,C] [C,C][C,C][C,C]C, | C,C,C,C, z2 F2 | x8 | %13
 [G,B,D][G,CG][CD^F][B,DG] [=B,_A]2- [B,=FA]2 | x4[K:bass] x4 |[M:8/4] x16 |] %16
V:4
 x8 | x8 | x8 | x8 | x8 | x8 | x8 | x8 | z2 C[D_A=B] z =B,CC | x8 | z2 C[^FA] [Ac]2 z C | %11
 [B,EG][CEG][A,_E^F][C=EG] C2- [CA]2 | x8 | x8 | x8 |[M:8/4] x16 |] %16

